images/about-us/money.svg

<?xml version="1.0" encoding="UTF-8"?>
<svg width="60px" height="98px" viewBox="0 0 60 98" version="1.1" xmlns="http://www.w3.org/2000/svg" xmlns:xlink="http://www.w3.org/1999/xlink">
    <!-- Generator: sketchtool 50.2 (55047) - http://www.bohemiancoding.com/sketch -->
    <title>2D66C9EA-3A90-433C-98B8-5E85F227A6E4</title>
    <desc>Created with sketchtool.</desc>
    <defs></defs>
    <g id="Illustration" stroke="none" stroke-width="1" fill="none" fill-rule="evenodd">
        <g id="ill" transform="translate(-448.000000, -259.000000)">
            <g id="Group-2" transform="translate(109.000000, 90.000000)">
                <g id="Group-3" transform="translate(339.000000, 169.000000)">
                    <g id="Group-12">
                        <path d="M26,7.5 C39.5345455,15.3145455 53.5436364,35.4472727 53.5,51 C53.4790001,58.1861816 46.6308232,64.8355641 42.7621123,67.585184 C38.2569686,70.7871375 31.7068742,70.6598711 24.4252727,66.4556364 C10.8907273,58.6392727 -0.0438181818,39.7010909 -0.000181818182,24.1483636 C0.0226026859,16.0275867 3.03446126,10.4368651 7.83443438,8.06053876 C12.2272605,5.885779 20.5324482,2.76577948 27,6.5 L26,7.5 Z" id="Fill-6" fill="#99CC33"></path>
                        <path d="M59.2627273,46.4869091 C59.2409091,54.2141818 56.5136364,59.6505455 52.1154545,62.2069091 L41.8627273,68.1632727 C46.2609091,65.6069091 48.9881818,60.1723636 49.0118182,52.4450909 C49.0554545,36.8923636 38.1209091,17.9523636 24.5845455,10.1378182 C17.7736364,6.20563636 11.6045455,5.84018182 7.14818182,8.42927273 L17.3990909,2.47109091 C21.8553519,-0.117940342 28.0260793,0.247437705 34.8368019,4.17990997 C48.3718182,11.9941818 59.3063636,30.9341818 59.2627273,46.4869091 Z" id="Combined-Shape" fill="#86B626"></path>
                        <path d="M25.9648824,26.1488655 L25.0016364,25.5927273 L25.0021822,25.5924102 L25.0130909,21.4307273 L27.5749091,19.9416364 L27.564,24.1034545 L25.3296817,25.4021818 L27.5652727,24.1036364 L28.5270909,24.66 L28.5263905,24.6604071 C32.2662101,26.8187361 35.2841814,32.1694268 35.2714545,36.5965455 C35.2696364,37.142 35.0823636,37.5274545 34.7769091,37.7038182 L32.2150909,39.1929091 C32.5187273,39.0165455 32.7078182,38.6310909 32.7096364,38.0856364 C32.7223636,33.6583636 29.7023636,28.3074545 25.9641818,26.1492727 L25.9648824,26.1488655 Z M21.1321818,22.9865261 L23.374,21.6843636 L24.3358182,22.2407273 L21.774,23.7298182 L20.8105606,23.1735683 L20.8098182,23.174 C18.9661818,22.1085455 17.2898182,22.0176364 16.0625455,22.7321818 L18.6261818,21.2430909 C19.8516364,20.5285455 21.5298182,20.6194545 23.3734545,21.6830909 L21.1321818,22.9865261 Z M27.7961818,49.427752 L28.4576364,49.0432727 C29.4321818,49.6069091 30.3176364,49.6541818 30.9612727,49.2814545 L28.3976364,50.7687273 C27.7542559,51.1431238 26.8710664,51.0960375 25.8969807,50.5330358 L25.8956364,50.5338182 L20.7410909,47.5574545 L23.3047273,46.0683636 L28.4574545,49.0429091 L27.7961818,49.427752 Z M26.9750909,57.6338182 L24.4114545,59.1229091 C24.7169091,58.9465455 24.9078182,58.5647273 24.9096364,58.0210909 L27.4714545,56.532 C27.4696364,57.0738182 27.2787273,57.4556364 26.9750909,57.6338182 Z M24.9207273,53.8589091 L27.4843636,52.3698182 L27.4716364,56.5316364 L24.9098182,58.0207273 L24.9207273,53.8589091 Z M14.4707273,38.3785455 L17.0343636,36.8894545 C17.3252727,36.7185455 17.7234545,36.7403636 18.1561818,36.9894545 C19.0507273,37.5058182 19.7670909,38.7876364 19.7634545,39.8549091 C19.758,42.1494545 21.3416364,44.9349091 23.3034545,46.0676364 L20.7416364,47.5567273 C18.7798182,46.424 17.1943636,43.6385455 17.2016364,41.344 C17.2034545,40.2767273 16.4870909,38.9949091 15.5925455,38.4785455 C15.1598182,38.2276364 14.7634545,38.2094545 14.4707273,38.3785455 Z M18.2978182,26.8045455 L20.8596364,25.3154545 C20.2069091,25.6936364 19.8014545,26.5081818 19.7978182,27.6627273 C19.7923636,29.9572727 21.376,32.7427273 23.3378182,33.8754545 L20.776,35.3645455 C18.8141818,34.2318182 17.2287273,31.4463636 17.236,29.1536364 C17.2378182,27.9972727 17.6450909,27.1827273 18.2978182,26.8045455 Z M20.7756364,35.3654545 L23.3392727,33.8763636 L28.4938182,36.8509091 L25.9301818,38.3418182 L20.7756364,35.3654545 Z M33.1807273,53.3670909 L30.6189091,54.8561818 C31.8807273,54.1216364 32.6698182,52.5343636 32.6752727,50.2798182 C32.688,45.8489091 29.668,40.4998182 25.9298182,38.3416364 L28.4934545,36.8507273 C32.2316364,39.0107273 35.2516364,44.3616364 35.2389091,48.7889091 C35.2316364,51.0452727 34.4443636,52.6343636 33.1807273,53.3670909 Z M22.2814545,18.4610909 L24.8432727,16.972 C25.1341818,16.8029091 25.5305455,16.8247273 25.9669091,17.0756364 L23.4050909,18.5647273 C22.9669091,18.312 22.5723636,18.292 22.2814545,18.4610909 Z M23.4052727,18.5649091 L25.9670909,17.0758182 C26.8507273,17.5849091 27.578,18.874 27.5743636,19.9412727 L25.0125455,21.4303636 C25.0161818,20.3630909 24.2870909,19.074 23.4052727,18.5649091 Z" id="Combined-Shape" fill="#89BA28"></path>
                        <path d="M23.4052727,18.5649091 C24.2870909,19.074 25.0161818,20.3630909 25.0125455,21.4303636 L25.0016364,25.5921818 L25.9652727,26.1485455 C29.7016364,28.3067273 32.7234545,33.6576364 32.7107273,38.0867273 C32.7070909,39.154 31.9834545,39.6049091 31.0907273,39.0885455 C30.2089091,38.5794545 29.4907273,37.2976364 29.4943636,36.2303636 C29.4998182,33.9358182 27.9161818,31.1503636 25.9543636,30.0176364 L20.7998182,27.0412727 C18.838,25.9085455 17.2416364,26.8594545 17.2343636,29.1521818 C17.2289091,31.4467273 18.8143636,34.2321818 20.7761818,35.3649091 L25.9307273,38.3412727 C29.6689091,40.4994545 32.6870909,45.8485455 32.6743636,50.2794545 C32.6616364,54.7194545 29.6216364,56.5721818 25.8852727,54.414 L24.9198182,53.8594545 L24.9089091,58.0212727 C24.9070909,59.0885455 24.1725455,59.5321818 23.2907273,59.0212727 C22.3961818,58.5067273 21.6798182,57.2230909 21.6816364,56.1558182 L21.6943636,51.994 L20.7307273,51.4394545 C16.9925455,49.2812727 13.9616364,43.9230909 13.9743636,39.4812727 C13.9761818,38.414 14.7107273,37.9685455 15.5925455,38.4794545 C16.4870909,38.994 17.2034545,40.2776364 17.2016364,41.3449091 C17.1943636,43.6394545 18.7798182,46.4249091 20.7416364,47.5576364 L25.8961818,50.534 C27.858,51.6667273 29.4543636,50.7158182 29.4598182,48.4212727 C29.4652727,46.1285455 27.8798182,43.3412727 25.9198182,42.2085455 L20.7652727,39.234 C17.0270909,37.0758182 13.9961818,31.7176364 14.0089091,27.2885455 C14.0216364,22.8612727 17.0725455,21.0158182 20.8107273,23.174 L21.7743636,23.7285455 L21.7852727,19.5685455 C21.7889091,18.5012727 22.5107273,18.0485455 23.4052727,18.5649091" id="Fill-39" fill="#CEF978"></path>
                    </g>
                    <ellipse id="Oval-5" fill-opacity="0.05" fill="#000000" transform="translate(32.000000, 90.000000) rotate(14.000000) translate(-32.000000, -90.000000) " cx="32" cy="90" rx="18" ry="6"></ellipse>
                </g>
            </g>
        </g>
    </g>
</svg>

<svg xmlns="http://www.w3.org/2000/svg" width="60" height="98"><title>2D66C9EA-3A90-433C-98B8-5E85F227A6E4</title><desc>Created with sketchtool.</desc><g fill="none"><g><g><g transform="translate(0 0)"><g><path fill="#9c3" d="M26 7.5C39.53 15.3 53.54 35.45 53.5 51c-.02 7.2-6.87 13.84-10.74 16.6-4.5 3.2-11.05 3.06-18.33-1.14C10.9 58.64-.04 39.7 0 24.16c.02-8.13 3.03-13.72 7.83-16.1C12.23 5.9 20.53 2.76 27 6.5l-1 1z"/><path id="Combined-Shape" fill="#86B626" d="M59.26 46.5c-.02 7.7-2.75 13.15-7.14 15.7l-10.26 5.96c4.4-2.55 7.13-8 7.15-15.7.06-15.57-10.88-34.5-24.42-42.32-6.8-3.93-12.98-4.3-17.43-1.7L17.4 2.46c4.46-2.6 10.63-2.22 17.44 1.7C48.37 12 59.3 30.94 59.26 46.5z"/><path fill="#89BA28" d="M25.96 26.15L25 25.6v-4.17l2.57-1.5v4.17l-2.24 1.3 2.24-1.3.96.56c3.74 2.16 6.75 7.5 6.74 11.94 0 .54-.2.93-.5 1.1l-2.55 1.5c.3-.18.5-.57.5-1.1 0-4.44-3.02-9.8-6.76-11.95zM21.13 23l2.24-1.32.97.56-2.57 1.5-.96-.57c-1.83-1.06-3.5-1.15-4.74-.44l2.57-1.5c1.22-.7 2.9-.6 4.74.45l-2.24 1.3zm6.67 26.43l.66-.4c.97.58 1.86.62 2.5.25l-2.56 1.5c-.65.36-1.53.32-2.5-.25l-5.16-2.97 2.56-1.5 5.16 2.98-.66.4zm-.82 8.2l-2.57 1.5c.32-.18.5-.57.5-1.1l2.57-1.5c0 .54-.2.93-.5 1.1zm-2.06-3.77l2.56-1.5v4.17l-2.57 1.5.02-4.17zM14.47 38.38l2.56-1.5c.3-.16.7-.14 1.13.1.9.53 1.6 1.8 1.6 2.87 0 2.3 1.58 5.08 3.54 6.22l-2.56 1.5c-1.96-1.15-3.55-3.93-3.54-6.23 0-1.06-.7-2.35-1.6-2.86-.44-.25-.84-.27-1.13-.1zM18.3 26.8l2.56-1.48c-.65.37-1.06 1.2-1.06 2.34 0 2.3 1.58 5.08 3.54 6.22l-2.56 1.48c-1.97-1.13-3.55-3.9-3.54-6.2 0-1.16.4-1.98 1.06-2.36zm2.48 8.57l2.56-1.5 5.15 2.98-2.57 1.5-5.15-2.98zm12.4 18l-2.56 1.5c1.26-.75 2.05-2.34 2.06-4.6 0-4.42-3-9.77-6.75-11.93l2.56-1.5c3.73 2.17 6.75 7.52 6.74 11.95 0 2.25-.8 3.83-2.06 4.57zm-10.9-34.9l2.56-1.5c.3-.17.7-.15 1.13.1l-2.56 1.5c-.43-.26-.83-.28-1.12-.1zm1.13.1l2.57-1.5c.88.5 1.6 1.8 1.6 2.87L25 21.44c.02-1.08-.7-2.37-1.6-2.88z"/><path fill="#CEF978" d="M23.4 18.56c.9.5 1.62 1.8 1.6 2.87v4.16l.97.55c3.73 2.16 6.75 7.5 6.74 11.94 0 1.05-.72 1.5-1.6 1-.9-.52-1.6-1.8-1.6-2.87 0-2.3-1.58-5.08-3.55-6.2l-5.15-3c-1.96-1.12-3.56-.17-3.57 2.12 0 2.3 1.58 5.08 3.55 6.2l5.15 3c3.74 2.15 6.76 7.5 6.74 11.93 0 4.44-3.05 6.3-6.78 4.13l-.98-.54v4.16c0 1.07-.75 1.5-1.63 1-.9-.5-1.62-1.8-1.62-2.86V52l-.95-.56c-3.74-2.16-6.77-7.52-6.76-11.96 0-1.07.74-1.5 1.62-1 .9.5 1.6 1.8 1.6 2.86 0 2.3 1.58 5.08 3.54 6.22l5.16 2.97c1.96 1.14 3.55.2 3.56-2.1 0-2.3-1.58-5.1-3.54-6.22l-5.15-2.97C17.03 37.08 14 31.73 14 27.3c.02-4.44 3.07-6.28 6.8-4.13l.97.56.02-4.16c0-1.07.7-1.52 1.6-1"/></g><ellipse cx="32" cy="90" fill="#000" fill-opacity=".05" transform="rotate(14 32 90)" rx="18" ry="6"/></g></g></g></g></svg>
